style/icons/download-caret.svg

<svg width="29" height="30" viewBox="0 0 36 37" fill="none" xmlns="http://www.w3.org/2000/svg">
  <path
    d="M17.5458 4.84912C9.61915 4.84912 3.18896 11.2754 3.18896 19.206C3.18896 27.1365 9.61915 33.5628 17.5458 33.5628C25.4764 33.5628 31.9027 27.1365 31.9027 19.206C31.9027 11.2754 25.4764 4.84912 17.5458 4.84912Z"
    stroke="#F47950" stroke-width="5" fill="none"
  />
  <path
    d="M18.8203 23.4497L23.3214 16.8948C23.5669 16.5324 23.5942 16.0647 23.3916 15.675C23.185 15.2853 22.7836 15.0437 22.3471 15.0437H12.7525C12.3122 15.0437 11.9108 15.2853 11.7042 15.675C11.5016 16.0647 11.5288 16.5324 11.7782 16.8948L16.2794 23.4497C16.5639 23.8667 17.0393 24.12 17.5498 24.12C18.0564 24.12 18.5319 23.8667 18.8203 23.4497Z"
    fill="#F47950"
  />
</svg>

<svg xmlns="http://www.w3.org/2000/svg" width="29" height="30" fill="none" viewBox="0 0 36 37"><path stroke="#F47950" stroke-width="5" d="M17.546 4.85c-7.927 0-14.357 6.425-14.357 14.356 0 7.93 6.43 14.357 14.357 14.357 7.93 0 14.357-6.427 14.357-14.357S25.476 4.849 17.546 4.849Z"/><path fill="#F47950" d="m18.82 23.45 4.501-6.555a1.182 1.182 0 0 0-.974-1.851h-9.594c-.44 0-.842.241-1.049.631-.202.39-.175.857.074 1.22l4.501 6.555a1.54 1.54 0 0 0 2.541 0"/></svg>
